X:180
M:6/8
L:1/8
K:D
e|fdd d2d|d2d d2e|fdd d2f|e2c A2e|fdd d2d|d2d d2d|BGG G2B|A2F D2e|
fdd d2d|d2d d2e|fdd d2f|e2c A2e|fdd dAA|BAA dAA|BGG AFF|A2F D2||

